X:1
T:Does Jesus Care?
T:Joseph Lincoln Hall
T:Does Jesus Care?
T:Public Domain
T:Public Domain
C:Joseph Lincoln Hall
Z:Public Domain
%%score ( 1 2 ) ( 3 4 )
L:1/8
M:6/8
K:Db
V:1 treble 
V:2 treble 
V:3 bass 
V:4 bass 
V:1
 [FA] | [DF]2 [DE] D2 [DB]/[DB]/ | [DA]2 [DG] [DF]2 ([DF]/[DF]/) | [CE][=B,=D][CE] [CA]2 [CG] | %4
w: 1.~Does|Je- sus care when my|is pained Too deep- *|ly for mirth or song,|
w: 2.~Does|Je- sus care when my|is dark With a *|name- less dread and fear?|
w: 3.~Does|Je- sus care when I’ve|and failed To~re- sist *|some temp- ta- tion strong;|
w: 4.~Does|Je- sus care when I’ve|“good- bye” To~the dear- *|est on earth to me,|
 [DF]3- [DF]2 [DF]/[EG]/ | [FA]2 [Fd] [Fd]2 [DF]/[DF]/ | [DE]2 [DB] [DB]2 [GB]/[GB]/ | %7
w: As * the bur-|dens press, and the cares|dis- tress And the way|
w: As * the day-|light fades in- to deep|night shades, Does He care|
w: When * for my|deep grief there is no|re- lief, Though my tears|
w: And * my sad|heart aches till it near-|ly breaks, Is it aught|
 [FA]2 [DF] [CA][CG][CE] | D3- D2 ||"^Refrain" [Fd] | [Gc]2 [EG] [Gc]2 [Ge] | %11
w: grows wear- y and long?||||
w: e- nough to be near?||||
w: flow all the night long?||||
w: to Him? Does He see?||||
 [Fd]2 [DF] [DA]2 [DF] | [CE]2 [Ec] [DB][DF][D=G] | C-[CD] A3 [Gc]/[Gc]/ | %14
w: |||
w: |||
w: |||
w: |||
 [Fd]2 [Fe] [Fd][FA][DF] | E2 [DB] [Gd][Gc][GB] | [FA]2 D [CF]2 [CE] | (D2- B, [A,D]2) |] %18
w: ||||
w: ||||
w: ||||
w: ||||
V:2
 x | x3 D2 x | x6 | x6 | x6 | x6 | x6 | x6 | D3- D2 || x | x6 | x6 | x6 | A3- C3 | x6 | D2 x4 | %16
w: |heart|||||||||||||||
w: |way|||||||||||||||
w: |tried|||||||||||||||
w: |said|||||||||||||||
 x6 | x5 |] %18
w: ||
w: ||
w: ||
w: ||
V:3
 [D,D] | [D,A,]2 [D,F,] [D,F,]2 [D,G,]/[D,G,]/ | [D,F,]2 [D,B,] [F,A,]2 [D,A,] | %3
w: ~|~ ~ ~ ~ ~|~ ~ ~ ~|
 [A,,A,][A,,A,][A,,A,] [A,,E,]2 [A,,A,] | [D,A,]3- [D,A,]2 [D,A,]/[D,A,]/ | %5
w: ~ ~ ~ ~ ~|~ * ~ ~|
 [D,D]2 [D,A,] [D,A,]2 [D,A,]/[D,A,]/ | [G,B,]2 [G,B,] [G,B,]2 [G,D]/[G,D]/ | %7
w: ~ ~ ~ ~ ~|~ ~ ~ ~ ~|
 [D,D]2 [D,A,] [A,,A,][A,,E,][A,,G,] | [D,F,]3- [D,F,]2 || [D,A,] | [E,A,]2 [A,C] [A,E]2 [A,C] | %11
w: ~ ~ ~ ~ ~|~ *|Oh|yes, He cares, I|
 [D,D]2 [D,A,] [D,F,]2 [D,A,] | [E,A,]2 [E,A,] [E,=G,][E,A,][E,B,] | %13
w: know He cares, His|heart is touched with my|
 A,-[F,A,] G,3 [A,,A,]/[A,,A,]/ | [D,A,]2 [D,A,] [D,A,][D,D][D,A,] | %15
w: grief; When the days are|y, the long nights drear-|
 [G,B,]2 [G,B,] [G,B,][G,C][G,D] | [D,D]2 [D,F,] [A,,A,]2 [A,,G,] | (F,2 G, [D,F,]2) |] %18
w: y, I know my Sav-|ior cares. * *||
V:4
 x | x6 | x6 | x6 | x6 | x6 | x6 | x6 | x5 || x | x6 | x6 | x6 | A,,3- A,,3 | x6 | x6 | x6 | %17
w: |||||||||||||wear- *||||
 D,3- x2 |] %18
w: |

